!!! OTL: Berkowitz273
!!! Chapter: 1
!!! Section: II
!!! Page: 65
!!! Mode: 
!!! Encoder: DJB
**kern
*staff1
*I"Piano
=1-
*clefG2
*k[f#]
*G:
*M3/4
4d/
4b\
4b\
=2
4.b\
8a/
4g/
=3
4f#/
4.g/
8a/
=4
2e/
4g/
=5
4f#/
4g/
4a/
=6
4d/
4e/
4f#/
=7
4g/
4.a/
8a#/
=8
2b\
4b\
=9
4b\
4e/
4b\
=10
4a/
4r
4a/
=11
!!linebreak:original
4a/
4d/
4a/
=12
4g/
4r
4d/
=13
4d/
4b\
4b\
=14
4.b\
8a/
4g/
=15
4e-/
4g/
4b-\
=16
4cc#\
4r
4cc#\
=17
4.dd\
8b\
4g/
=18
4d/
4r
4cc#\
=19
8dd\L
8cc#\J
8ee\L
8dd\J
8b/L
8g/J
=20
!!linebreak:original
4d/
4r
4cc#\
=21
4dd\
4b\
4g/
=22
4d/
4b\
8r
8a/
=23
[2.g/
=24
4g/]
2r
==
*-
